svg/furkot/freepik/naturalfeature.svg

<svg viewBox="0 0 512 512" xmlns="http://www.w3.org/2000/svg"><path d="m259.441 204.536c7.889 0 15.255-1.767 21.526-4.839 6.667 11.142 20.882 18.844 37.332 18.844 15.387 0 28.809-6.755 35.939-16.747 5.054 1.756 10.631 2.742 16.472 2.742 22.484 0 40.756-14.369 41.356-32.273-1.789.193-3.628.292-5.488.292-16.451 0-30.654-7.697-37.332-18.839-6.277 3.077-13.643 4.839-21.515 4.839-22.853 0-41.39-14.848-41.39-33.17 0-3.612.732-7.102 2.076-10.367-16.863 2.032-30.395 12.217-34.139 25.397-4.603-1.432-9.602-2.208-14.837-2.208-22.847 0-41.384 14.842-41.384 33.164.005 18.317 18.537 33.165 41.384 33.165z"/><path d="m362.16 144.654c7.884 0 15.25-1.767 21.515-4.834 6.678 11.143 20.882 18.839 37.327 18.839 15.404 0 28.82-6.744 35.944-16.741 5.054 1.756 10.626 2.736 16.467 2.736 22.858 0 41.395-14.843 41.395-33.159s-18.52-33.165-41.395-33.165c-5.55 0-10.84.881-15.679 2.467-4.052-14.898-20.613-26.052-40.421-26.052-19.687 0-36.148 11.022-40.343 25.793-4.603-1.42-9.602-2.202-14.826-2.202-22.853 0-41.39 14.848-41.39 33.164s18.548 33.154 41.406 33.154zm73.398 207.762c-17.056-25.43-34.679-51.729-55.671-70.012-20.777-17.997-39.275-25.209-56.573-22.099-26.894 4.861-42.149 32.84-56.903 59.882-11.407 20.904-23.2 42.529-37.052 45.375-7.074 1.465-15.916-1.948-26.183-9.975-4.707-3.804-9.475-8.506-14.529-13.483-18.107-17.859-42.914-42.314-77.73-26.646-25.914 11.033-39.826 37.205-53.292 62.508-14.237 26.762-27.72 52.031-53.59 58.753h-4.035v23.349h513.321v-23.552c-31.023-14.468-54.795-49.835-77.763-84.1z"/></svg>

<svg xmlns="http://www.w3.org/2000/svg" viewBox="0 0 512 512"><path d="M259.441 204.536C267.33 204.536 274.696 202.769 280.967 199.697 287.634 210.839 301.849 218.541 318.299 218.541 333.686 218.541 347.108 211.786 354.238 201.794 359.292 203.55 364.869 204.536 370.71 204.536 393.194 204.536 411.466 190.167 412.066 172.263 410.277 172.456 408.438 172.555 406.578 172.555 390.127 172.555 375.924 164.858 369.246 153.716 362.969 156.793 355.603 158.555 347.731 158.555 324.878 158.555 306.341 143.707 306.341 125.385 306.341 121.773 307.073 118.283 308.417 115.018 291.554 117.05 278.022 127.235 274.278 140.415 269.675 138.983 264.676 138.207 259.441 138.207 236.594 138.207 218.057 153.049 218.057 171.371 218.062 189.688 236.594 204.536 259.441 204.536Z"/><path d="M362.16 144.654C370.044 144.654 377.41 142.887 383.675 139.82 390.353 150.963 404.557 158.659 421.002 158.659 436.406 158.659 449.822 151.915 456.946 141.918 462 143.674 467.572 144.654 473.413 144.654 496.271 144.654 514.808 129.811 514.808 111.495S496.288 78.33 473.413 78.33C467.863 78.33 462.573 79.211 457.734 80.797 453.682 65.899 437.121 54.745 417.313 54.745 397.626 54.745 381.165 65.767 376.97 80.538 372.367 79.118 367.368 78.336 362.144 78.336 339.291 78.336 320.754 93.184 320.754 111.5S339.302 144.654 362.16 144.654ZM435.558 352.416C418.502 326.986 400.879 300.687 379.887 282.404 359.11 264.407 340.612 257.195 323.314 260.305 296.42 265.166 281.165 293.145 266.411 320.187 255.004 341.091 243.211 362.716 229.359 365.562 222.285 367.027 213.443 363.614 203.176 355.587 198.469 351.783 193.701 347.081 188.647 342.104 170.54 324.245 145.733 299.79 110.917 315.458 85.003 326.491 71.091 352.663 57.625 377.966 43.388 404.728 29.905 429.997 4.035 436.719H0V460.068H513.321V436.516C482.298 422.048 458.526 386.681 435.558 352.416Z"/></svg>
